X:6
T:score101
L:1/16
Q:1/4=96
M:2/2
I:linebreak $
K:F
"_dolce" !turn!f8 (a2>g2b2>g2) | (f4- fege) c4 z2 c2 | f4 (g^fg^g) a4 (babd') |$ %3
 (a4- ab=bc') =g4 z2 c2 | (_b6 Tg^f/g/) .e2(=f2e2f2) | (b6 Tg^f/g/) .e2(c'2=b2c'2) |$ %6
 d'4- d'(!turn!d'e'f') (f6 ag) | (g6 c'e f2) z2 z4 |] %8
